public/popup/arroba.D1T-WjYY_ZxELlA.svg

<svg width="139" height="140" viewBox="0 0 139 140" fill="none" xmlns="http://www.w3.org/2000/svg">
<path d="M40.469 132.447C23.286 124.784 10.3814 111.382 4.13986 94.712C-2.07504 78.1122 -1.26951 59.3576 6.40175 41.8927C14.1584 24.245 27.6177 10.934 44.3099 4.42094C61.0074 -2.09751 79.8442 -1.38817 97.3472 6.42001C114.52 14.1583 127.568 27.2221 134.146 43.2254C140.819 59.4651 140.435 77.6609 133.052 94.4541L132.865 94.8732C125.306 111.253 112.679 122.016 97.87 125.203C94.1251 132.947 86.4805 138.476 77.4062 139.089C64.5123 139.954 52.4293 137.783 40.4636 132.447H40.469Z" fill="#F7F4E5"/>
<path d="M45.8404 120.216C17.0919 107.4 5.61162 76.7367 18.5429 47.3043C31.6128 17.5548 62.4952 5.50665 91.9746 18.6457C120.947 31.7041 133.105 61.2977 120.915 89.0374C120.889 89.1019 120.857 89.1664 120.83 89.2255C113.591 104.917 100.884 113.397 87.0401 112.779L87.056 114.262C87.1254 120.297 82.4949 125.332 76.52 125.735C65.824 126.455 55.7896 124.65 45.8351 120.211L45.8404 120.216Z" fill="#F28AB8"/>
<path d="M28.8708 51.9042C39.3588 28.0336 63.3488 18.3177 87.4082 29.0439C109.985 39.2166 120.366 62.1897 110.593 84.4319C103.823 99.1079 91.836 105.051 78.8567 99.2691C73.9915 97.0981 70.8921 93.1107 70.3639 88.4301C66.0162 90.7247 61.1029 91.3588 55.875 89.0266C44.8802 84.1256 43.4345 72.9481 47.9423 62.6948C53.1276 50.8939 64.8639 43.3168 76.2161 48.3789C80.6332 50.3458 82.7777 53.8011 83.2258 57.6918L83.754 57.7133C84.4901 56.5203 85.2317 55.3327 85.9679 54.1397L98.675 59.8037C96.5998 52.2588 91.0518 45.7673 81.9508 41.71C65.5521 34.3962 49.372 42.2743 42.437 58.068C35.0964 74.7698 40.9432 90.4023 56.4457 97.313C62.4846 100.005 69.0196 101.075 75.6186 100.763L75.768 114.402C66.8857 114.998 58.697 113.52 50.4069 109.823C27.6972 99.699 18.1375 76.3336 28.8655 51.9149L28.8708 51.9042ZM75.2452 71.9324C77.0803 67.757 76.04 63.4955 72.1671 61.7651C67.9313 59.8789 63.5729 62.9259 61.423 67.8268C59.8653 71.3682 60.7242 75.549 64.5971 77.274C68.9236 79.2032 73.2927 76.3712 75.2452 71.9271V71.9324ZM85.413 81.8901C83.9353 84.2707 83.6206 86.9523 86.0532 88.0378C90.1982 89.8864 94.0605 84.7705 96.6159 78.9614C99.5286 72.3355 100.238 65.8116 98.6857 60.0187L85.413 81.8901Z" fill="#A71F5F"/>
</svg>

<svg xmlns="http://www.w3.org/2000/svg" width="139" height="140" fill="none" viewBox="0 0 139 140"><path fill="#f7f4e5" d="M40.469 132.447c-17.183-7.663-30.088-21.065-36.33-37.735-6.214-16.6-5.409-35.354 2.263-52.82C14.158 24.246 27.618 10.935 44.31 4.422 61.007-2.098 79.844-1.39 97.347 6.42c17.173 7.738 30.221 20.802 36.799 36.805 6.673 16.24 6.289 34.436-1.094 51.23l-.187.418c-7.559 16.38-20.186 27.143-34.995 30.33-3.745 7.744-11.39 13.273-20.464 13.886-12.894.865-24.977-1.306-36.942-6.642z"/><path fill="#f28ab8" d="M45.84 120.216C17.092 107.4 5.612 76.736 18.543 47.304c13.07-29.75 43.952-41.797 73.432-28.658 28.972 13.058 41.13 42.652 28.94 70.391-.026.065-.058.13-.085.188-7.239 15.692-19.946 24.172-33.79 23.554l.016 1.483c.07 6.035-4.561 11.07-10.536 11.473-10.696.72-20.73-1.085-30.685-5.524z"/><path fill="#a71f5f" d="M28.87 51.904c10.489-23.87 34.479-33.586 58.538-22.86 22.577 10.173 32.958 33.146 23.185 55.388-6.77 14.676-18.757 20.619-31.736 14.837-4.865-2.17-7.965-6.158-8.493-10.839-4.348 2.295-9.261 2.929-14.489.597-10.995-4.901-12.44-16.079-7.933-26.332 5.186-11.801 16.922-19.378 28.274-14.316 4.417 1.967 6.562 5.422 7.01 9.313l.528.021c.736-1.193 1.478-2.38 2.214-3.573l12.707 5.664C96.6 52.259 91.052 45.767 81.951 41.71c-16.399-7.314-32.579.564-39.514 16.358-7.34 16.702-1.494 32.334 14.009 39.245 6.039 2.692 12.574 3.762 19.173 3.45l.149 13.639c-8.882.596-17.071-.882-25.361-4.579-22.71-10.124-32.27-33.49-21.541-57.908zm46.375 20.028c1.835-4.175.795-8.437-3.078-10.167-4.236-1.886-8.594 1.16-10.744 6.062-1.558 3.541-.699 7.722 3.174 9.447 4.327 1.93 8.696-.903 10.648-5.347zm10.168 9.958c-1.478 2.38-1.792 5.062.64 6.148 4.145 1.848 8.008-3.267 10.563-9.077 2.913-6.626 3.622-13.15 2.07-18.942z"/></svg>
